packages/kaspersky-hexa-ui-icons/src/iconsSVGs/64x42/FlagCf.svg

<svg width="64" height="42" viewBox="0 0 64 42" fill="none" xmlns="http://www.w3.org/2000/svg">
<g clip-path="url(#clip0_37941_2225)">
<rect width="64" height="42" rx="5" fill="white"/>
<path fill-rule="evenodd" clip-rule="evenodd" d="M0 10.5H64V0H0V10.5Z" fill="#083D96"/>
<path fill-rule="evenodd" clip-rule="evenodd" d="M0 21H64V10.5H0V21Z" fill="white"/>
<path fill-rule="evenodd" clip-rule="evenodd" d="M0 31.5H64V21H0V31.5Z" fill="#37AE39"/>
<path fill-rule="evenodd" clip-rule="evenodd" d="M0 42H64V31.5H0V42Z" fill="#FFD13F"/>
<path fill-rule="evenodd" clip-rule="evenodd" d="M24.9999 42H38.9999V0H24.9999V42Z" fill="#E42346"/>
<path fill-rule="evenodd" clip-rule="evenodd" d="M12.3998 7.23796L9.93113 8.99784L10.842 6.10613L8.40539 4.30209L11.437 4.27479L12.3998 1.39996L13.3626 4.27479L16.3943 4.30209L13.9577 6.10613L14.8685 8.99784L12.3998 7.23796Z" fill="#FFD03B"/>
</g>
<defs>
<clipPath id="clip0_37941_2225">
<rect width="64" height="42" rx="5" fill="white"/>
</clipPath>
</defs>
</svg>

<svg xmlns="http://www.w3.org/2000/svg" width="64" height="42" fill="none" viewBox="0 0 64 42"><g clip-path="url(#a)"><rect width="64" height="42" fill="#fff" rx="5"/><path fill="#083d96" fill-rule="evenodd" d="M0 10.5h64V0H0z" clip-rule="evenodd"/><path fill="#fff" fill-rule="evenodd" d="M0 21h64V10.5H0z" clip-rule="evenodd"/><path fill="#37ae39" fill-rule="evenodd" d="M0 31.5h64V21H0z" clip-rule="evenodd"/><path fill="#ffd13f" fill-rule="evenodd" d="M0 42h64V31.5H0z" clip-rule="evenodd"/><path fill="#e42346" fill-rule="evenodd" d="M24.9999 42h14V0h-14z" clip-rule="evenodd"/><path fill="#ffd03b" fill-rule="evenodd" d="M12.3998 7.238 9.9311 8.9978l.9109-2.8917-2.4366-1.804 3.0316-.0273.9628-2.8748.9628 2.8748 3.0317.0273-2.4366 1.804.9108 2.8917z" clip-rule="evenodd"/></g><defs><clipPath id="a"><rect width="64" height="42" fill="#fff" rx="5"/></clipPath></defs></svg>
